svgs/sharp-thin/arrow-up-from-dotted-line.svg

<svg xmlns="http://www.w3.org/2000/svg" viewBox="0 0 448 512"><!--! Font Awesome Pro 6.6.0 by @fontawesome - https://fontawesome.com License - https://fontawesome.com/license (Commercial License) Copyright 2024 Fonticons, Inc. --><path d="M229.7 42.3L224 36.7l-5.7 5.7-136 136L76.7 184 88 195.3l5.7-5.7L216 67.3 216 344l0 8 16 0 0-8 0-276.7L354.3 189.7l5.7 5.7L371.3 184l-5.7-5.7-136-136zM16 432l0 32 32 0 0-32-32 0zm128 0l-32 0 0 32 32 0 0-32zm96 32l0-32-32 0 0 32 32 0zm96-32l-32 0 0 32 32 0 0-32zm64 0l0 32 32 0 0-32-32 0z"/></svg>

<svg xmlns="http://www.w3.org/2000/svg" viewBox="0 0 448 512"><!--! Font Awesome Pro 6.5.2 by @fontawesome - https://fontawesome.com License - https://fontawesome.com/license (Commercial License) Copyright 2024 Fonticons, Inc. --><path d="M229.7 42.3L224 36.7l-5.7 5.7-136 136L76.7 184 88 195.3l5.7-5.7L216 67.3V344v8h16v-8V67.3L354.3 189.7l5.7 5.7L371.3 184l-5.7-5.7-136-136zM16 432v32H48V432H16zm128 0H112v32h32V432zm96 32V432H208v32h32zm96-32H304v32h32V432zm64 0v32h32V432H400z"/></svg>
